X:497
%%etbk:tnset id:221,pos:2,rep:3x,ant:
%%etbk:wsite http://thesession.org/tunes/177
%%etbk:video src:ytube,cde:9uWMPaQj7NY,desc:second tune
%%etbk:skill ?
%%etbk:pldat 2013-11-25T19:28,2013-11-23T16:14,2013-11-21T18:30,2013-11-17T15:52,2013-11-13T17:08,2013-11-12T18:06,2013-11-09T16:29,2013-11-09T15:11,2013-11-07T15:32,2013-11-06T17:08,2013-10-05T16:06,2013-10-04T16:42,2013-09-29T15:41,2013-09-27T13:53
T: Sean Sa Ceo
Z: Piano Box Version by Martin Fleischmann
H: Created 2013-09-08 /  Last Modified 2013-09-26
R: reel
M: 4/4
L: 1/8
K: Amix
|:"A"!4!e2!3!d!5!g !4!e!1!ABd | !4!e2Ae "G"!3!d!1!GBd | "A"!4!e2dg e!1!A!2!cA | "G"!2!B2!5!g!3!d !2!B!1!G!2!B!3!d:|:
"A"!2!cAAA !3!cABd | !3!cAAA !4!d!1!GBd | !3!cAAA !5!e!1!AcA | "G"!2!B2!5!g!3!d !2!B!1!G!2!B!3!d|
"A"!2!cAAA !3!cABd| !3!cAAA d!1!G !2!3(Bc!1!d) | !5!af!4!ge !3!fde!1!d| "G"!2!B2!5!g!3!d !2!B!1!G!2!B!5!g|
|:"A"!4!fedf !3!eAB!3!d | !4!ed!4!e!5!g "G"!3!d!1!G!2!B!5!g | "A"!4!fedf !3!e!1!A!2!cA|1 "G"!2!B2!5!gd !2!BGB!5!g:|2 "G"!2!B2!5!gd !2!BGB!3!d:|
